packages/core/src/svgs/tokens/branded/ZYN.svg

<svg width="24" height="24" viewBox="0 0 24 24" fill="none" xmlns="http://www.w3.org/2000/svg">
<path d="M17.875 2L15.525 5.75H20.1437L14.1875 15.125H15.8625L18.3125 11.375H21.1874L17.3875 17.625H12.6062L9.83127 22H7.01875L9.75631 17.625H5.14376L11.0251 8.24998H9.32494L6.6375 12.4L2.8125 6.3375L5.63125 2H17.8813H17.875ZM6.91875 4.49999L5.70625 6.37499L6.6375 7.87499L8.025 5.75H12.5938L13.3813 4.49999H6.91875ZM13.9312 8.24998L9.54996 15.125H11.325L15.6312 8.24998H13.9312Z" fill="#F8B003"/>
</svg>

<svg xmlns="http://www.w3.org/2000/svg" width="24" height="24" fill="none" viewBox="0 0 24 24">
    <path fill="#F8B003" d="m17.875 2-2.35 3.75h4.619l-5.956 9.375h1.675l2.45-3.75h2.874l-3.8 6.25h-4.78L9.83 22H7.02l2.737-4.375H5.144l5.881-9.375h-1.7L6.638 12.4 2.813 6.338 5.63 2h12.25zM6.919 4.5 5.706 6.375l.931 1.5L8.026 5.75h4.569l.787-1.25zm7.012 3.75L9.55 15.125h1.775l4.306-6.875z"/>
</svg>
